packages/tokens/icons/relevanceListingPage/size16Px.svg

<svg viewBox="0 0 16 16" fill="none" xmlns="http://www.w3.org/2000/svg" width="1em" height="1em"><path d="M8.5 3C8.77614 3 9 2.77614 9 2.5C9 2.22386 8.77614 2 8.5 2V3ZM15 7.5C15 7.22386 14.7761 7 14.5 7C14.2239 7 14 7.22386 14 7.5H15ZM6.5 5C6.77614 5 7 4.77614 7 4.5C7 4.22386 6.77614 4 6.5 4V5ZM13 13.5L3 13.5V14.5L13 14.5V13.5ZM2 12.5L2 4H1L1 12.5H2ZM3 3L8.5 3V2L3 2V3ZM14 7.5L14 12.5H15L15 7.5H14ZM3 13.5C2.44772 13.5 2 13.0523 2 12.5H1C1 13.6046 1.89543 14.5 3 14.5V13.5ZM13 14.5C14.1046 14.5 15 13.6046 15 12.5H14C14 13.0523 13.5523 13.5 13 13.5V14.5ZM2 4C2 3.44772 2.44772 3 3 3V2C1.89543 2 1 2.89543 1 4H2ZM1.5 5L6.5 5V4L1.5 4L1.5 5Z" fill="currentColor"/><path d="M8.5 10.5L11.5 10.5M4 10C4 9.44772 4.44772 9 5 9H6C6.55228 9 7 9.44772 7 10V11C7 11.5523 6.55228 12 6 12H5C4.44772 12 4 11.5523 4 11L4 10Z" stroke="currentColor" stroke-linecap="round"/><path d="M12.9188 3.09862L12.9924 3.24231L13.1361 3.31586L14.3955 3.96057L12.0331 6.32286C11.8992 6.45678 11.7011 6.50354 11.5215 6.44365L10.4608 6.09009C10.3115 6.04032 10.1944 5.92317 10.1446 5.77386L9.67024 5.93198L10.1446 5.77386L9.79103 4.7132C9.73114 4.53354 9.7779 4.33545 9.91182 4.20154L12.2741 1.83922L12.9188 3.09862Z" stroke="currentColor" stroke-linejoin="round"/><path d="M10.1819 6.05284L8.39447 7.80098" stroke="currentColor" stroke-linecap="round"/></svg>

<svg xmlns="http://www.w3.org/2000/svg" fill="none" viewBox="0 0 16 16" width="1em" height="1em"><path fill="currentColor" d="M8.5 3a.5.5 0 0 0 0-1v1ZM15 7.5a.5.5 0 0 0-1 0h1ZM6.5 5a.5.5 0 0 0 0-1v1Zm6.5 8.5H3v1h10v-1Zm-11-1V4H1v8.5h1ZM3 3h5.5V2H3v1Zm11 4.5v5h1v-5h-1Zm-11 6a1 1 0 0 1-1-1H1a2 2 0 0 0 2 2v-1Zm10 1a2 2 0 0 0 2-2h-1a1 1 0 0 1-1 1v1ZM2 4a1 1 0 0 1 1-1V2a2 2 0 0 0-2 2h1Zm-.5 1h5V4h-5v1Z"/><path stroke="currentColor" stroke-linecap="round" d="M8.5 10.5h3M4 10a1 1 0 0 1 1-1h1a1 1 0 0 1 1 1v1a1 1 0 0 1-1 1H5a1 1 0 0 1-1-1v-1Z"/><path stroke="currentColor" stroke-linejoin="round" d="m12.919 3.099.073.143.144.074 1.26.645-2.363 2.362a.5.5 0 0 1-.511.12L10.46 6.09a.5.5 0 0 1-.316-.316l-.475.158.475-.158-.354-1.06a.5.5 0 0 1 .12-.512l2.363-2.363.645 1.26Z"/><path stroke="currentColor" stroke-linecap="round" d="M10.182 6.053 8.394 7.8"/></svg>
